X:1
T: Fagan
C:
R:Jig
Q:180
K:F
M:6/8
L:1/16
c2|A6 F6|c2A2F2 F2A2c2|A6 c6|a2f2d2 d4e2|f2a2g2 f2e2d2|c2A2F2 F2G2A2|G6 A6|A2F2D2 D4c2|
A6 F6|c2A2F2 F2A2c2|A6 c6|a2f2d2 d4e2|f2a2g2 f2e2d2|c2A2F2 F2G2A2|G6 A6|A2F2D2 D4c2|
A4c2 G4c2|A4c2 G4c2|A4c2 d2e2f2|e2c2c2 c2d2e2|B6 c6|a2g2f2 e2d2c2|d2e2f2 c4B2|A2F2F2 F4c2|
A4c2 G4c2|A4c2 G4c2|A4c2 d2e2f2|e2c2c2 c2d2e2|B6 c6|a2g2f2 e2d2c2|d2e2f2 c4B2|A2F2F2 F4||
